X:1
T:Title
%%score 1 { 2 | 3 }
L:1/8
Q:1/4=110
M:4/4
K:A
V:1 treble nm="Grand Piano, Soprano"
V:2 treble nm="Choir Pad, Mountain View, 10.10.10.10"
V:3 bass 
V:1
 [CE]2 [EA]2- [EA][FB] [EA]2 | [DF]2 [CE]4 z2 | [EA]2 [DG]4 [CA]2- | [CA]2 [EB]6 | %4
w: By~William~T.~Rogers,~1871 * * * *||||
 [DE]2 [CA]2- [CA][FB] [EA]2 | [DF]2 [CE]4 z2 | [CA]2 [CA]4 [DB]2 | [Ec]2 [CA]4 z2 | %8
w: ||||
 [Ec]2 [Ee]2- [Ee][Ec] [CA]2 | [EB]2 [Ec]4 z2 | [FA]2 [FB]4 [Ec]2- | [Ec]2 [EB]6 | %12
w: ||||
 [EB]2 [Ec]2- [Ec][EB] [CA]2 | [DF]2 [CE]4 z2 | [CA]2 [CA]4 [DB]2 | [Ec]2 [CA]6- | [CA]2 z2 z4 |] %17
w: |||||
V:2
 A,2 C2- CD C2 | A,2 A,4 z2 | A,2 E,4 E,2 | A,2 G,6 | G,2 A,2- A,D C2 | A,2 A,4 z2 | A,2 A,4 G,2- | %7
 G,2 A,4 z2 | A,2 C2- CA, A,2 | G,2 A,4 z2 | A,2 A,4 A,2- | A,2 G,6 | G,2 A,2- A,/ z/ G, A,2 | %13
 A,2 A,4 z2 | A,2 A,4 G,2- | G,2 A,6- | A,2 z2 z4 |] %17
V:3
 A,,2 A,,2- A,,A,, A,,2 | A,,2 A,,4 z2 | C,2 B,,4 A,,2- | A,,2 E,6 | E,2 A,,2- A,,A,, A,,2 | %5
 A,,2 A,,4 z2 | A,,2 F,4 E,2- | E,2 A,,4 z2 | A,,2 A,4 F,2 | E,2 z2 z4 | F,2 D,4 A,,2- | A,,2 E,6 | %12
 E,2 z2 z E, F,2 | D,2 A,,4 z2 | A,,2 F,4 E,2- | E,2 A,,6- | A,,2 z2 z4 |] %17

